!!!OTL: Was hört man denn Neues vom Krieg (151), S. 332
!!!id: T0320
**kern
*clefG2
*k[b-]
*F:
{8c
=1
8a
8a
8a
8a
8g
8f
=2
8f
8e}
4.r
=3
{8c
=4
8b-
8b-
8cc
8dd
8cc
8g
=5
4a}
4.r
=6
{8c
=7
8a
8a
8a
8a
8g
8f
=8
8f
8e}
4.r
=9
{8c
=10
8b-
8b-
8cc
8dd
8cc
8g
=11
4a}
4.r
=12
{8a
=13
8a
16a
16a
8a
8a
8g
8a
=14
8b-
8b-}
4.r
=15
{8a
=16
8a
16a
16a
8a
8a
8g
8a
=17
8b-
8b-}
4.r
=18
{8cc
=19
8a
8a
8a
8a
8b-
8cc
=20
4dd}
4.r
=21
{16ff
16cc
=22
8cc
8ff
8ff
8ee
8dd
8ee
=23
4ff
8cc}
4r
=24
{8cc
=25
8a
8a
8a
8a
8b-
8cc
=26
4dd}
4.r
=27
{16ff
16cc
=28
8cc
8ff
8ff
8ee
8dd
8ee
=29
4.ff}
4r
==
*-
!!!minrhy: 16
!!!meters: 6/8 ]  ZZ[10
!!!cut: Was hört man denn Neues vom Krieg (151), S. 332
!!!reg: Luxemburg
!!!trd: Singendes Volk, Esch-Alzette 1937, posth.
!!!rhy1: X_  X_X_X_X_X_X_  X_X_0_.   (x2)
!!!rhy2: X_  X_X_X_X_X_X_  X__0_.
!!!key: T0320  16  F 6/8 ]  ZZ[10
!!!mod: HEPTATONIK IONISCH]  AMBITUS[11
!!!kad: -73-7344656+1
!!!akz: 331_463_331_463_334_334_336_57+1_336_57+1_
!!!fot: 'a__b__a__b__aw_aw_aw_c__aw_c__
!!!for: 'a__aw_a__aw_b__b__aw_aw_aw_aw_
!!!fok: '^a_^a_^a_^a_/__/__Va_Sd_Va_V__
!! PHRAS[AUFTAKTIG]
!!!fkt: historische, Kriegs- und Soldatenlieder
!!!bem: Esch-Alzette, fff Michel Rauchs, 22.1.1934
!! THILL, Mathias:
!! PR[30] 2K[5] 2G[15] 3K[5] 3G[5] 4A[5] 4Ü[0] 5A[0] 6K[0] 6G[0]
!! 7K[0] 7G[0] 8A[0] MEHR[0] SI[35] ABS[40] SR[20] SP[15]
!! ST[15] 2k[10] 2g[18] 3k[3] 3g[5] 4d[0] 4ü[0] 5d[0] 6k[0] 6g[0]
!! 7k[0] 7g[0] 8d[0] mehr[0] si[35] dm[0] sr[28] sp[8]
!! 1F[20] 2F[61] 3F[20] 4F[0] LF[0] 2P[0] 3P[0] 4P[0] TRI[0] DF[3] AB[41]
!! TF[0] U3K[0] U3[0] U4[0] U4Ü[0] U5[5] U6K[0] U6[0] U7K[0] U7[0]
!! N1[12] N2K[0] N2[15] N3K[0] N3[27] N4[15] N4Ü[0] N5[22] N6K[0] N6[5]
!!!n7k: 0] N7[0] O1[0] O2K[0] O2[0] O3K[0] O3[0] HÖ[0
